src/assets/icons/logo-dark-horizontal.svg

<svg width="232" height="37" viewBox="0 0 232 37" fill="none" xmlns="http://www.w3.org/2000/svg">
    <path d="M231.738 12.5703H181.953V36.5938H231.738V12.5703Z" fill="#B7B7B7"/>
    <path d="M28.5938 26.9258V32.6094H25.2734V16.4766H31.582C32.793 16.4766 33.8672 16.6914 34.7852 17.1406C35.7031 17.5898 36.4062 18.2148 36.9141 19.0352C37.4023 19.8555 37.6562 20.7734 37.6562 21.8281C37.6562 23.4102 37.1094 24.6602 36.0352 25.5781C34.9609 26.4961 33.457 26.9453 31.543 26.9453H28.5938V26.9258ZM28.5938 24.2305H31.5625C32.4414 24.2305 33.1055 24.0156 33.5742 23.6055C34.043 23.1953 34.2578 22.6094 34.2578 21.8281C34.2578 21.0469 34.0234 20.4023 33.5547 19.9141C33.0859 19.4258 32.4414 19.1719 31.6211 19.1523H28.5742V24.2305H28.5938Z" fill="#B7B7B7"/>
    <path d="M45.8398 23.625C45.4102 23.5664 45.0195 23.5273 44.6875 23.5273C43.4766 23.5273 42.6758 23.9375 42.3047 24.7578V32.6094H39.1016V20.6172H42.1289L42.2266 22.043C42.8711 20.9492 43.7695 20.3828 44.9023 20.3828C45.2539 20.3828 45.5859 20.4219 45.8984 20.5195L45.8398 23.625Z" fill="#B7B7B7"/>
    <path d="M46.5234 26.5156C46.5234 25.3242 46.7578 24.2695 47.207 23.332C47.6563 22.3945 48.3203 21.6719 49.1797 21.1641C50.0391 20.6563 51.0352 20.4023 52.1875 20.4023C53.8086 20.4023 55.1367 20.8906 56.1523 21.8867C57.168 22.8828 57.7539 24.2305 57.8711 25.9297L57.8906 26.75C57.8906 28.5859 57.3828 30.0703 56.3477 31.1836C55.3125 32.2969 53.9453 32.8438 52.207 32.8438C50.4688 32.8438 49.1016 32.2969 48.0664 31.1836C47.0312 30.0703 46.5234 28.5664 46.5234 26.6523V26.5156ZM49.7266 26.7305C49.7266 27.8633 49.9414 28.7422 50.3711 29.3477C50.8008 29.9531 51.4063 30.2461 52.207 30.2461C52.9883 30.2461 53.5937 29.9531 54.0234 29.3477C54.4531 28.7422 54.668 27.8047 54.668 26.4961C54.668 25.3828 54.4531 24.5039 54.0234 23.8984C53.5937 23.293 52.9688 22.9805 52.1875 22.9805C51.4063 22.9805 50.8008 23.293 50.3711 23.8984C49.9414 24.5039 49.7266 25.4609 49.7266 26.7305Z" fill="#B7B7B7"/>
    <path d="M63.3008 17.668V20.6172H65.3516V22.9609H63.3008V28.957C63.3008 29.4063 63.3789 29.7188 63.5547 29.9141C63.7305 30.1094 64.043 30.207 64.5313 30.207C64.8828 30.207 65.1953 30.1875 65.4688 30.1289V32.5508C64.8438 32.7461 64.1992 32.8438 63.5352 32.8438C61.2891 32.8438 60.1367 31.7109 60.0977 29.4453V22.9805H58.3398V20.6367H60.0977V17.6875H63.3008V17.668Z" fill="#B7B7B7"/>
    <path d="M72.0508 32.8438C70.293 32.8438 68.8672 32.2969 67.7539 31.2227C66.6406 30.1484 66.0938 28.7031 66.0938 26.9063V26.5938C66.0938 25.3828 66.3281 24.3086 66.7969 23.3516C67.2656 22.3945 67.9297 21.6719 68.7695 21.1641C69.6289 20.6563 70.6055 20.4023 71.6992 20.4023C73.3398 20.4023 74.6289 20.9297 75.5664 21.9453C76.5039 22.9805 76.9727 24.4453 76.9727 26.3398V27.6484H69.3359C69.4336 28.4297 69.7461 29.0547 70.2734 29.543C70.8008 30.0117 71.4453 30.2461 72.2461 30.2461C73.4766 30.2461 74.4531 29.7969 75.1367 28.8984L76.7188 30.6563C76.2305 31.3398 75.5859 31.8672 74.7656 32.2383C73.9453 32.6484 73.0469 32.8438 72.0508 32.8438ZM71.6797 22.9805C71.0352 22.9805 70.5273 23.1953 70.1367 23.625C69.7461 24.0547 69.4922 24.6797 69.375 25.4805H73.8281V25.2266C73.8086 24.5039 73.6133 23.957 73.2422 23.5664C72.8906 23.1758 72.3633 22.9805 71.6797 22.9805Z" fill="#B7B7B7"/>
    <path d="M83.5547 30.2656C84.1406 30.2656 84.6289 30.1094 85 29.7773C85.3711 29.4453 85.5664 29.0156 85.5859 28.4883H88.5937C88.5937 29.3086 88.3594 30.0508 87.9297 30.7149C87.5 31.3984 86.8945 31.9258 86.1328 32.2969C85.3711 32.668 84.5312 32.8633 83.6133 32.8633C81.8945 32.8633 80.5469 32.3164 79.5508 31.2227C78.5547 30.1289 78.0664 28.625 78.0664 26.7109V26.4961C78.0664 24.6406 78.5547 23.1758 79.5508 22.0625C80.5273 20.9688 81.875 20.4023 83.5938 20.4023C85.0977 20.4023 86.2891 20.832 87.207 21.6914C88.1055 22.5508 88.5742 23.6836 88.5937 25.1094H85.5859C85.5664 24.4844 85.3711 23.9766 85 23.5859C84.6289 23.1953 84.1406 23 83.5352 23C82.793 23 82.2266 23.2734 81.8359 23.8203C81.4453 24.3672 81.2695 25.2461 81.2695 26.4766V26.8086C81.2695 28.0391 81.4648 28.9375 81.8359 29.4648C82.207 29.9922 82.7734 30.2656 83.5547 30.2656Z" fill="#B7B7B7"/>
    <path d="M94.1211 17.668V20.6172H96.1719V22.9609H94.1211V28.957C94.1211 29.4063 94.1992 29.7188 94.375 29.9141C94.5508 30.1094 94.8633 30.207 95.3516 30.207C95.7031 30.207 96.0156 30.1875 96.2891 30.1289V32.5508C95.6641 32.7461 95.0195 32.8438 94.3555 32.8438C92.1094 32.8438 90.957 31.7109 90.918 29.4453V22.9805H89.1602V20.6367H90.918V17.6875H94.1211V17.668Z" fill="#B7B7B7"/>
    <path d="M116.055 16.4766V27.1211C116.055 28.8789 115.508 30.2852 114.395 31.3203C113.281 32.3555 111.777 32.8633 109.863 32.8633C107.969 32.8633 106.484 32.3555 105.371 31.3594C104.258 30.3633 103.691 28.9961 103.672 27.2383V16.4766H106.992V27.1406C106.992 28.1953 107.246 28.9766 107.754 29.4453C108.262 29.9336 108.965 30.168 109.863 30.168C111.738 30.168 112.676 29.1914 112.715 27.2187V16.4766H116.055Z" fill="#B7B7B7"/>
    <path d="M122.715 27.8047L121.562 28.957V32.6094H118.359V15.5781H121.562V25.0117L122.187 24.2109L125.254 20.5976H129.102L124.766 25.6172L129.473 32.6094H125.781L122.715 27.8047Z" fill="#B7B7B7"/>
    <path d="M137.09 23.625C136.66 23.5664 136.27 23.5273 135.938 23.5273C134.727 23.5273 133.926 23.9375 133.555 24.7578V32.6094H130.352V20.6172H133.379L133.477 22.043C134.121 20.9492 135.02 20.3828 136.152 20.3828C136.504 20.3828 136.836 20.4219 137.148 20.5195L137.09 23.625Z" fill="#B7B7B7"/>
    <path d="M145.293 32.6289C145.137 32.3359 145.039 31.9844 144.98 31.5547C144.199 32.4141 143.203 32.8438 141.953 32.8438C140.781 32.8438 139.805 32.5117 139.023 31.8281C138.242 31.1445 137.871 30.2852 137.871 29.25C137.871 27.9805 138.34 27.0039 139.277 26.3203C140.215 25.6367 141.582 25.3047 143.359 25.2852H144.844V24.6016C144.844 24.0547 144.707 23.6055 144.414 23.2734C144.121 22.9414 143.672 22.7656 143.066 22.7656C142.52 22.7656 142.109 22.9024 141.797 23.1563C141.484 23.4102 141.328 23.7617 141.328 24.2305H138.125C138.125 23.5274 138.34 22.8828 138.77 22.2969C139.199 21.7109 139.805 21.2422 140.586 20.9102C141.367 20.5781 142.246 20.4023 143.223 20.4023C144.707 20.4023 145.879 20.7734 146.738 21.5156C147.598 22.2578 148.047 23.3125 148.047 24.6406V29.8359C148.047 30.9688 148.223 31.8281 148.516 32.4141V32.6094H145.293V32.6289ZM142.656 30.3828C143.125 30.3828 143.574 30.2852 143.965 30.0703C144.355 29.8555 144.668 29.582 144.844 29.2305V27.1602H143.652C142.051 27.1602 141.191 27.707 141.094 28.8203L141.074 29.0156C141.074 29.4063 141.211 29.7383 141.504 30.0117C141.777 30.2656 142.168 30.3828 142.656 30.3828Z" fill="#B7B7B7"/>
    <path d="M150.059 17.5117C150.059 17.0234 150.215 16.6328 150.547 16.3203C150.879 16.0078 151.309 15.8516 151.855 15.8516C152.402 15.8516 152.832 16.0078 153.164 16.3203C153.496 16.6328 153.652 17.0234 153.652 17.5117C153.652 18 153.496 18.3906 153.164 18.7031C152.832 19.0156 152.402 19.1719 151.855 19.1719C151.309 19.1719 150.879 19.0156 150.547 18.7031C150.215 18.3906 150.059 18 150.059 17.5117ZM153.457 32.6289H150.234V20.6367H153.457V32.6289Z" fill="#B7B7B7"/>
    <path d="M158.691 20.6172L158.789 22.0039C159.648 20.9297 160.801 20.4023 162.246 20.4023C163.516 20.4023 164.473 20.7734 165.078 21.5156C165.684 22.2578 166.016 23.3711 166.035 24.8555V32.6094H162.832V24.9336C162.832 24.25 162.676 23.7617 162.383 23.4492C162.09 23.1367 161.602 22.9805 160.898 22.9805C160 22.9805 159.316 23.3711 158.867 24.1328V32.5898H155.664V20.5977H158.691V20.6172Z" fill="#B7B7B7"/>
    <path d="M173.574 32.8438C171.816 32.8438 170.391 32.2969 169.277 31.2227C168.164 30.1484 167.617 28.7031 167.617 26.9063V26.5938C167.617 25.3828 167.852 24.3086 168.32 23.3516C168.789 22.3945 169.453 21.6719 170.293 21.1641C171.152 20.6563 172.129 20.4023 173.223 20.4023C174.863 20.4023 176.152 20.9297 177.09 21.9453C178.027 22.9805 178.496 24.4453 178.496 26.3398V27.6484H170.859C170.957 28.4297 171.27 29.0547 171.797 29.543C172.324 30.0117 172.969 30.2461 173.77 30.2461C175 30.2461 175.977 29.7969 176.66 28.8984L178.242 30.6563C177.754 31.3398 177.109 31.8672 176.289 32.2383C175.469 32.6484 174.57 32.8438 173.574 32.8438ZM173.203 22.9805C172.559 22.9805 172.051 23.1953 171.66 23.625C171.27 24.0547 171.016 24.6797 170.898 25.4805H175.352V25.2266C175.332 24.5039 175.137 23.957 174.766 23.5664C174.414 23.1758 173.887 22.9805 173.203 22.9805Z" fill="#B7B7B7"/>
    <path d="M199.316 32.6289H195.996L189.512 22.0039V32.6289H186.191V16.4766H189.512L195.996 27.1211V16.4766H199.316V32.6289Z" fill="black"/>
    <path d="M201.25 26.5156C201.25 25.3242 201.484 24.2695 201.934 23.332C202.383 22.3945 203.047 21.6719 203.906 21.1641C204.766 20.6563 205.762 20.4023 206.914 20.4023C208.535 20.4023 209.863 20.8906 210.879 21.8867C211.895 22.8828 212.48 24.2305 212.598 25.9297L212.617 26.75C212.617 28.5859 212.109 30.0703 211.074 31.1836C210.039 32.2969 208.672 32.8438 206.934 32.8438C205.195 32.8438 203.828 32.2969 202.793 31.1836C201.758 30.0703 201.25 28.5664 201.25 26.6523V26.5156ZM204.453 26.7305C204.453 27.8633 204.668 28.7422 205.098 29.3477C205.527 29.9531 206.133 30.2461 206.934 30.2461C207.715 30.2461 208.32 29.9531 208.75 29.3477C209.18 28.7422 209.414 27.8047 209.414 26.4961C209.414 25.3828 209.199 24.5039 208.75 23.8984C208.32 23.293 207.695 22.9805 206.914 22.9805C206.133 22.9805 205.527 23.293 205.098 23.8984C204.668 24.5039 204.453 25.4609 204.453 26.7305Z" fill="black"/>
    <path d="M224.297 28.2539L225.879 20.6172H228.965L225.898 32.6094H223.223L220.957 25.0508L218.691 32.6094H216.016L212.949 20.6172H216.035L217.598 28.2539L219.785 20.6172H222.109L224.297 28.2539Z" fill="black"/>
    <path d="M18.75 3.85938L18.5938 4.50391L18.457 5.03125L15.1758 2.96093L11.9727 2.39453L8.76953 2.96093L5.48828 5.03125L5.37109 4.50391L5.21484 3.85938L8.33984 1.59375L11.9727 0.871094L15.625 1.59375L18.75 3.85938Z" fill="#B7B7B7"/>
    <path d="M23.3398 5.55858L23.0859 4.42577L23.2031 3.46875L20.293 5.10937L19.082 6.14452L18.3984 6.80859L18.6133 5.96875L18.7109 5.55858L18.9453 4.75781L19.0234 3.46875L18.5742 3.17578L18.1836 3.39062L18.0859 4.26953L17.8516 4.93359L18.0859 5.42188L18.0078 5.8125L16.7383 6.6328L15.1953 8.3125L14.9219 9.52344L13.3594 10.2656L13.3203 10.3047L12.793 10.0898V9.44531L13.1836 8.54688L13.2422 7.21874L12.6367 6.45703L11.9727 6.33983L11.3086 6.45703L10.7227 7.21874L10.7813 8.54688L11.1523 9.44531V10.0898L10.625 10.3047L10.6055 10.2656L9.02344 9.52344L8.75 8.3125L7.20703 6.6328L5.95703 5.8125L5.87891 5.42188L6.11328 4.93359L5.87891 4.26953L5.78125 3.39062L5.39063 3.17578L4.94141 3.46875L5 4.75781L5.23438 5.55858L5.3125 5.8125L5.54688 6.80859L4.86328 6.22265L3.65234 5.10937L0.742188 3.46875L0.859375 4.42577L0.605469 5.55858V5.94921L1.34766 6.28124L1.19141 7.04297L2.36328 7.98046L2.69531 8.97655L4.25781 9.85546L6.26953 13.8984L9.39453 17.1016L8.63281 19.3672L8.00781 28.5273L9.80469 32.6289H11.9727H14.1406L15.957 28.5273L15.3125 19.3672L14.5508 17.1016L17.6758 13.8984L19.6875 9.85546L21.2695 8.97655L21.6016 7.98046L22.7539 7.04297L22.5977 6.28124L23.3398 5.94921V5.55858Z" fill="#B7B7B7"/>
</svg>

<svg width="232" height="37" fill="none" xmlns="http://www.w3.org/2000/svg"><path d="M231.738 12.57h-49.785v24.024h49.785V12.57zM28.594 26.926v5.683h-3.32V16.477h6.308c1.211 0 2.285.214 3.203.664.918.449 1.621 1.074 2.13 1.894.487.82.741 1.738.741 2.793 0 1.582-.547 2.832-1.62 3.75-1.075.918-2.579 1.367-4.493 1.367h-2.95v-.02zm0-2.695h2.968c.88 0 1.543-.215 2.012-.626.469-.41.684-.996.684-1.777 0-.781-.235-1.426-.703-1.914-.47-.488-1.114-.742-1.934-.762h-3.047v5.078h.02zM45.84 23.625a8.86 8.86 0 0 0-1.153-.098c-1.21 0-2.011.41-2.382 1.23v7.852h-3.203V20.617h3.027l.098 1.426c.644-1.094 1.543-1.66 2.675-1.66.352 0 .684.039.996.137l-.058 3.105zM46.523 26.516c0-1.192.235-2.246.684-3.184a4.944 4.944 0 0 1 1.973-2.168c.86-.508 1.855-.762 3.008-.762 1.62 0 2.949.489 3.964 1.485 1.016.996 1.602 2.343 1.72 4.043l.019.82c0 1.836-.508 3.32-1.543 4.434-1.035 1.113-2.403 1.66-4.141 1.66s-3.105-.547-4.14-1.66c-1.036-1.114-1.544-2.618-1.544-4.532v-.136zm3.204.215c0 1.132.214 2.011.644 2.617.43.605 1.035.898 1.836.898.781 0 1.387-.293 1.816-.898.43-.606.645-1.543.645-2.852 0-1.113-.215-1.992-.645-2.598-.43-.605-1.054-.918-1.836-.918-.78 0-1.386.313-1.816.918-.43.606-.644 1.563-.644 2.832zM63.3 17.668v2.95h2.052v2.343H63.3v5.996c0 .45.078.762.254.957.175.195.488.293.976.293.352 0 .664-.02.938-.078v2.422a6.446 6.446 0 0 1-1.934.293c-2.246 0-3.398-1.133-3.437-3.399V22.98H58.34v-2.343h1.758v-2.95H63.3v-.019zM72.05 32.844c-1.757 0-3.183-.547-4.296-1.621-1.113-1.075-1.66-2.52-1.66-4.317v-.312c0-1.211.234-2.285.703-3.242.469-.957 1.133-1.68 1.972-2.188.86-.508 1.837-.762 2.93-.762 1.64 0 2.93.528 3.867 1.543.938 1.035 1.407 2.5 1.407 4.395v1.308h-7.637c.098.782.41 1.407.937 1.895.528.469 1.172.703 1.973.703 1.23 0 2.207-.45 2.89-1.348l1.583 1.758a4.745 4.745 0 0 1-1.953 1.582c-.82.41-1.72.606-2.715.606zm-.37-9.864c-.645 0-1.153.215-1.543.645-.39.43-.645 1.055-.762 1.855h4.453v-.253c-.02-.723-.215-1.27-.586-1.66-.351-.391-.879-.587-1.562-.587zM83.555 30.266c.586 0 1.074-.157 1.445-.489.371-.332.566-.761.586-1.289h3.008c0 .82-.235 1.563-.664 2.227-.43.683-1.036 1.21-1.797 1.582a5.68 5.68 0 0 1-2.52.566c-1.719 0-3.066-.547-4.062-1.64-.996-1.094-1.485-2.598-1.485-4.512v-.215c0-1.855.489-3.32 1.485-4.433.976-1.094 2.324-1.66 4.043-1.66 1.504 0 2.695.429 3.613 1.288.899.86 1.367 1.993 1.387 3.418h-3.008c-.02-.625-.215-1.132-.586-1.523-.371-.39-.86-.586-1.465-.586-.742 0-1.308.273-1.7.82-.39.547-.566 1.426-.566 2.657v.332c0 1.23.196 2.128.567 2.656.371.527.937.8 1.719.8zM94.121 17.668v2.95h2.05v2.343h-2.05v5.996c0 .45.078.762.254.957.176.195.488.293.977.293.351 0 .664-.02.937-.078v2.422a6.446 6.446 0 0 1-1.933.293c-2.247 0-3.399-1.133-3.438-3.399V22.98H89.16v-2.343h1.758v-2.95h3.203v-.019zM116.055 16.477V27.12c0 1.758-.547 3.164-1.66 4.2-1.114 1.034-2.618 1.542-4.532 1.542-1.894 0-3.379-.508-4.492-1.504s-1.68-2.363-1.699-4.12V16.476h3.32V27.14c0 1.054.254 1.836.762 2.304.508.489 1.211.723 2.109.723 1.875 0 2.813-.977 2.852-2.95V16.478h3.34zM122.715 27.805l-1.153 1.152v3.652h-3.203V15.58h3.203v9.433l.625-.801 3.067-3.613h3.848l-4.336 5.02 4.707 6.991h-3.692l-3.066-4.804zM137.09 23.625a8.862 8.862 0 0 0-1.152-.098c-1.211 0-2.012.41-2.383 1.23v7.852h-3.203V20.617h3.027l.098 1.426c.644-1.094 1.543-1.66 2.675-1.66.352 0 .684.039.996.137l-.058 3.105zM145.293 32.629c-.156-.293-.254-.645-.313-1.074-.781.86-1.777 1.289-3.027 1.289-1.172 0-2.148-.332-2.93-1.016-.781-.683-1.152-1.543-1.152-2.578 0-1.27.469-2.246 1.406-2.93.938-.683 2.305-1.015 4.082-1.035h1.485v-.683c0-.547-.137-.997-.43-1.329-.293-.332-.742-.507-1.348-.507-.546 0-.957.136-1.269.39-.313.254-.469.606-.469 1.075h-3.203c0-.704.215-1.348.645-1.934.429-.586 1.035-1.055 1.816-1.387.781-.332 1.66-.508 2.637-.508 1.484 0 2.656.371 3.515 1.114.86.742 1.309 1.797 1.309 3.125v5.195c0 1.133.176 1.992.469 2.578v.195h-3.223v.02zm-2.637-2.246a2.7 2.7 0 0 0 1.309-.313c.39-.215.703-.488.879-.84v-2.07h-1.192c-1.601 0-2.461.547-2.558 1.66l-.02.196c0 .39.137.722.43.996.273.254.664.37 1.152.37zM150.059 17.512c0-.489.156-.88.488-1.192.332-.312.762-.468 1.308-.468.547 0 .977.156 1.309.468.332.313.488.703.488 1.192 0 .488-.156.879-.488 1.191-.332.313-.762.469-1.309.469-.546 0-.976-.156-1.308-.469-.332-.312-.488-.703-.488-1.191zm3.398 15.117h-3.223V20.637h3.223v11.992zM158.691 20.617l.098 1.387c.859-1.074 2.012-1.602 3.457-1.602 1.27 0 2.227.371 2.832 1.114.606.742.938 1.855.957 3.34v7.753h-3.203v-7.675c0-.684-.156-1.172-.449-1.485-.293-.312-.781-.469-1.485-.469-.898 0-1.582.391-2.031 1.153v8.457h-3.203V20.598h3.027v.02zM173.574 32.844c-1.758 0-3.183-.547-4.297-1.621-1.113-1.075-1.66-2.52-1.66-4.317v-.312c0-1.211.235-2.285.703-3.242.469-.957 1.133-1.68 1.973-2.188.859-.508 1.836-.762 2.93-.762 1.64 0 2.929.528 3.867 1.543.937 1.035 1.406 2.5 1.406 4.395v1.308h-7.637c.098.782.411 1.407.938 1.895.527.469 1.172.703 1.973.703 1.23 0 2.207-.45 2.89-1.348l1.582 1.758a4.745 4.745 0 0 1-1.953 1.582c-.82.41-1.719.606-2.715.606zm-.371-9.864c-.644 0-1.152.215-1.543.645-.39.43-.644 1.055-.762 1.855h4.454v-.253c-.02-.723-.215-1.27-.586-1.66-.352-.391-.879-.587-1.563-.587z" fill="#B7B7B7"/><path d="M199.316 32.629h-3.32l-6.484-10.625v10.625h-3.321V16.477h3.321l6.484 10.644V16.477h3.32v16.152zM201.25 26.516c0-1.192.234-2.246.684-3.184a4.943 4.943 0 0 1 1.972-2.168c.86-.508 1.856-.762 3.008-.762 1.621 0 2.949.489 3.965 1.485 1.016.996 1.601 2.343 1.719 4.043l.019.82c0 1.836-.508 3.32-1.543 4.434-1.035 1.113-2.402 1.66-4.14 1.66-1.739 0-3.106-.547-4.141-1.66-1.035-1.114-1.543-2.618-1.543-4.532v-.136zm3.203.215c0 1.132.215 2.011.645 2.617.429.605 1.035.898 1.836.898.781 0 1.386-.293 1.816-.898.43-.606.664-1.543.664-2.852 0-1.113-.215-1.992-.664-2.598-.43-.605-1.055-.918-1.836-.918-.781 0-1.387.313-1.816.918-.43.606-.645 1.563-.645 2.832zM224.297 28.254l1.582-7.637h3.086l-3.067 11.992h-2.675l-2.266-7.558-2.266 7.558h-2.675l-3.067-11.992h3.086l1.563 7.637 2.187-7.637h2.324l2.188 7.637z" fill="#000"/><path d="m18.75 3.86-.156.644-.137.527-3.281-2.07-3.203-.566-3.203.566-3.282 2.07-.117-.527-.156-.645L8.34 1.594 11.973.87l3.652.723 3.125 2.265z" fill="#B7B7B7"/><path d="m23.34 5.559-.254-1.133.117-.957-2.91 1.64-1.211 1.036-.684.664.215-.84.098-.41.234-.801.078-1.29-.449-.292-.39.215-.098.879-.234.664.234.488-.078.39-1.27.82-1.543 1.68-.273 1.211-1.563.743-.039.039-.527-.215v-.645l.39-.898.06-1.328-.606-.762-.664-.117-.664.117-.586.762.058 1.328.371.898v.645l-.527.215-.02-.04-1.582-.742-.273-1.21-1.543-1.68-1.25-.82-.078-.391.234-.488-.234-.664-.098-.88-.39-.214-.45.293L5 4.758l.234.8.079.255.234.996-.684-.586-1.21-1.114-2.91-1.64.116.957-.254 1.133v.39l.743.332-.157.762 1.172.937.332.997 1.563.878 2.012 4.043 3.125 3.204-.762 2.265-.625 9.16 1.797 4.102h4.336l1.816-4.102-.645-9.16-.761-2.265 3.125-3.204 2.012-4.043 1.582-.878.332-.997 1.152-.937-.156-.762.742-.332v-.39z" fill="#B7B7B7"/></svg>
